X:1
T:The Bold Fenian Men
M:C
L:1/8
Q:80
C:arr. Kent Hiestand
S:March 2/4
K:HP
| {g}A2d2{gdc}d2{g}cd | \
{gef}e2ge{gcd}c/2{d}A3/2-A2 | \
{gfg}f2{g}e3/2f/2{ag}a2ge |
{Gdc}d2{g}e3/2d/2{gcd}c4 | \
{g}A2d2{gdc}d2{g}cd | \
{gef}e2ge{gcd}c/2{d}A3/2-A2 |
{gfg}f2{g}e3/2f/2{ag}a2ge | \
{Gdc}d2{g}e3/2c/2{Gdc}d4|]
{ag}a2{g}a2{GdG}a2fd |
{gde}d2fd{gBd}B/2{G}A3/2-A2 | \
{gfg}f2{g}e3/2f/2{ag}a2ge | \
{Gdc}d2{g}e3/2d/2{gcd}c4 |
{g}A2d2{gdc}d2{g}cd | \
{gef}e2ge{gcd}c/2{d}A3/2-A2 | \
{gfg}f2{g}e3/2f/2{ag}a2ge |
{Gdc}d2{g}e3/2c/2{Gdc}d4|]
